X: 14039
T: IVA'S JIG
C: Bob McQuillen Dec.'08
B: Bob's Note Book 14 #39
%R: jig
%D:2008
Z: 2020 John Chambers <jc:trillian.mit.edu>
M: 6/8
L: 1/8
K: G
D \
| GAG FED | DGB d2B | dBG EcB | ABG FED |\
| GAG FED | DGB d2D | EcB Adc | BGG G2 :|
|: B \
| dBG GBG | EAG FED | dBG GBd | cde d2B |\
| dBG GBd | cde fga | gdc EcB | AGF G2 :|
%%begintext align
%% Iva de Martelly is
%% one of the regulars at the Monday Night Dance
%% in Nelson. She and Elena Madnick are a real
%% cute pair, and boy, you should see them dance!
%% Iva is also learning to be a caller, and Don Primrose
%% sometimes lets her. She does a good job of it, and
%% always gets a nice hand from the crowd. Go, Iva, go!
%%endtext

%%sep 1 1 500

%%sep 1 1 500

